X:1
T:Little Bird's Hop Step
M:4/4
C:Paul Hartwell 2010
Q:1/4=120
K:A
|:(3EFG A2 f>f e>d|c>B A>A e>e d2|B2 A2 f>f e>d|c>B A>A F>G A2|
A2 A2 f>f e>d|c>B A>A e>e d2|B2 A2  f>f e>d| c>B A>A F>G A2|
A2  (3afa  (3afa  (3afa|f>e  (3efa f>e  (3efa|f>e  (3afa  (3afa  (3afa|f>e  (3efa f>e  (3dcB|
A2  (3afa  (3afa  (3afa|f>e  (3efa f>e  (3efa|f>e  (3afa  (3afa  (3afa|f>e  (3efa f>e  (3dcB|
A2:|



